X: 305657
M: 6/8
L: 1/8
K: G
g |\
(dB).g (dB).g | (ec).g (ec).a | (gf)e def | gbg d2g |\
(dB).g (dB).g | (ec).g (ec).a | gfe def | g2b g2 H|]
d3 B2c | (ed).d dBG | FAc (ed).c | (^AB).B B3 |\
d3 B2c | (ed).d dBG | FA.c (ed).F | AGG "^D.C."G2 |]
K: Gm
z |\


